computer/algo/BTree.svg

<svg xmlns="http://www.w3.org/2000/svg" width="1400" height="470" viewBox="0 0 1400 470"><defs><style>.node{fill:#f8fafc;stroke:#334155;stroke-width:2;rx:12;ry:12}.internal{fill:#ecfeff;stroke:#0891b2}.leaf{fill:#f0fdf4;stroke:#16a34a}.key{font:600 18px ui-monospace,SFMono-Regular,Menlo,Monaco,Consolas,&quot;Liberation Mono&quot;,monospace;fill:#0f172a;dominant-baseline:middle;text-anchor:middle}</style></defs><path d="M0 0h1400v470H0z" style="fill:#fff"/><path d="M720 102c-70 43-240 73-435 118m465-118v118m30-118c70 43 240 73 425 118m-955 52c-35 38-95 53-165 88m200-88c-20 38-55 53-80 88m115-88c15 38 35 53 15 88m380-88c-40 38-130 53-230 88m265-88c-20 38-60 53-135 88m170-88c5 38 20 53-40 88m410-88c-50 38-155 53-280 88m315-88c-20 38-55 53-185 88m220-88c5 38 5 53-90 88m125-88c35 38 50 53 25 88" style="stroke:#64748b;stroke-width:2;fill:none"/><path d="M690 50h120v52H690z" class="node" style="fill:#eef2ff;stroke:#4338ca"/><text x="750" y="77" class="key">30 | 60</text><path d="M220 220h130v52H220z" class="node internal"/><text x="285" y="247" class="key">10 | 20</text><path d="M685 220h130v52H685z" class="node internal"/><text x="750" y="247" class="key">40 | 50</text><path d="M1120 220h170v52h-170z" class="node internal"/><text x="1205" y="247" class="key">70 | 80 | 90</text><path d="M40 360h90v52H40z" class="node leaf"/><text x="85" y="387" class="key">1 | 5</text><path d="M150 360h110v52H150z" class="node leaf"/><text x="205" y="387" class="key">12 | 15</text><path d="M280 360h110v52H280z" class="node leaf"/><text x="335" y="387" class="key">22 | 25</text><path d="M430 360h110v52H430z" class="node leaf"/><text x="485" y="387" class="key">32 | 35</text><path d="M560 360h110v52H560z" class="node leaf"/><text x="615" y="387" class="key">42 | 45</text><path d="M690 360h110v52H690z" class="node leaf"/><text x="745" y="387" class="key">52 | 55</text><path d="M820 360h110v52H820z" class="node leaf"/><text x="875" y="387" class="key">62 | 65</text><path d="M950 360h110v52H950z" class="node leaf"/><text x="1005" y="387" class="key">72 | 75</text><path d="M1080 360h110v52h-110z" class="node leaf"/><text x="1135" y="387" class="key">82 | 85</text><path d="M1210 360h150v52h-150z" class="node leaf"/><text x="1285" y="387" class="key">92 | 95 | 99</text></svg>

<svg xmlns="http://www.w3.org/2000/svg" width="1400" height="470" viewBox="0 0 1400 470"><defs><style>.node{fill:#f8fafc;stroke:#334155;stroke-width:2;rx:12;ry:12}.internal{fill:#ecfeff;stroke:#0891b2}.leaf{fill:#f0fdf4;stroke:#16a34a}.edge{stroke:#64748b;stroke-width:2;fill:none}.key{font:600 18px ui-monospace,SFMono-Regular,Menlo,Monaco,Consolas,&quot;Liberation Mono&quot;,monospace;fill:#0f172a;dominant-baseline:middle;text-anchor:middle}</style></defs><path d="M0 0h1400v470H0z" style="fill:#fff"/><path d="M720 102c-70 43-240 73-435 118M750 102v118M780 102c70 43 240 73 425 118M250 272c-35 38-95 53-165 88M285 272c-20 38-55 53-80 88M320 272c15 38 35 53 15 88M715 272c-40 38-130 53-230 88M750 272c-20 38-60 53-135 88M785 272c5 38 20 53-40 88M1155 272c-50 38-155 53-280 88M1190 272c-20 38-55 53-185 88M1225 272c5 38 5 53-90 88M1260 272c35 38 50 53 25 88" class="edge"/><path d="M690 50h120v52H690z" class="node" style="fill:#eef2ff;stroke:#4338ca"/><text x="750" y="77" class="key">30 | 60</text><path d="M220 220h130v52H220z" class="node internal"/><text x="285" y="247" class="key">10 | 20</text><path d="M685 220h130v52H685z" class="node internal"/><text x="750" y="247" class="key">40 | 50</text><path d="M1120 220h170v52h-170z" class="node internal"/><text x="1205" y="247" class="key">70 | 80 | 90</text><path d="M40 360h90v52H40z" class="node leaf"/><text x="85" y="387" class="key">1 | 5</text><path d="M150 360h110v52H150z" class="node leaf"/><text x="205" y="387" class="key">12 | 15</text><path d="M280 360h110v52H280z" class="node leaf"/><text x="335" y="387" class="key">22 | 25</text><path d="M430 360h110v52H430z" class="node leaf"/><text x="485" y="387" class="key">32 | 35</text><path d="M560 360h110v52H560z" class="node leaf"/><text x="615" y="387" class="key">42 | 45</text><path d="M690 360h110v52H690z" class="node leaf"/><text x="745" y="387" class="key">52 | 55</text><path d="M820 360h110v52H820z" class="node leaf"/><text x="875" y="387" class="key">62 | 65</text><path d="M950 360h110v52H950z" class="node leaf"/><text x="1005" y="387" class="key">72 | 75</text><path d="M1080 360h110v52h-110z" class="node leaf"/><text x="1135" y="387" class="key">82 | 85</text><path d="M1210 360h150v52h-150z" class="node leaf"/><text x="1285" y="387" class="key">92 | 95 | 99</text></svg>
